!!!COM: Frescobaldi, Girolamo
!!!CDT: 1583///-1643
!!!ONM: No. 15
!!!OTL: No. 15: Canzon Quarta &agrave; 2. Canto e Basso
!!!OPR: Canzoni da sonare a una, due, tre et quattro, libro primo
!!!PPP: Venezia
!!!PDT: 1634
!!!URL: http://icking-music-archive.org/ByComposer/Frescobaldi.html
!!!ONB: Andrea Friggi, ed.
**kern	**kern	**kern
!Basso ad Organo	!Basso	!Canto
*staff3	*staff2	*staff1
*Icello	*Icello	*Ivioln
*clefF4	*clefF4	*clefG2
*k[b-]	*k[b-]	*k[b-]
*met(C)	*met(C)	*met(C)
*M4/4	*M4/4	*M4/4
*MM120	*MM120	*MM120
=1-	=1-	=1-
2.D\	1r	4.dd\
.	.	8dd\
.	.	4dd\
4F\	.	4a/
=2	=2	=2
4.BB-/	1r	4dd\
.	.	8ff\L
8C/	.	8ee\J
2D\	.	8dd\L
.	.	8aa\
.	.	8ff\
.	.	8gg\J
=3	=3	=3
2AA/	2A\	8aa\L
.	.	8ee\
.	.	8aa\
.	.	8gg\J
4AA/	4A\	4ff\
4BB-/	4B-\	8ee\L
.	.	8dd\J
=4	=4	=4
4C/	8c\L	4ee\
.	8A\	.
8D/L	8d\	2ff\
8C/J	8c\J	.
4BB-/	4B-\	.
4GG/	4G\	8ee\L
.	.	8dd\J
=5	=5	=5
4AA/	4A\	8cc#\L
.	.	8a\J
8GG/L	8G\L	2dd\
8FF/J	8F\J	.
4GG/	4G\	.
4AA/	4A\	4cc#\
=6	=6	=6
4.D\	4.D\	2dd\
8D\	8D\	.
4D\	4D\	2r
4AA/	4AA/	.
=7	=7	=7
4D\	4D\	1r
8F\L	8F\L	.
8E\J	8E\J	.
2D\	8D\L	.
.	8A\	.
.	8F\	.
.	8G\J	.
=8	=8	=8
2C#/	8A\L	2a/
.	8E\	.
.	8A\	.
.	8G\J	.
2D\	4F\	4a/
.	8E\L	4b-\
.	8D\J	.
=9	=9	=9
2AA/	4E\	8cc\L
.	.	8a\
.	2F\	8dd\
.	.	8cc\J
2GG/	.	4b-\
.	4E\	8a/L
.	.	8g/J
=10	=10	=10
2FF/	2F\	8a\L
.	.	8b-\
.	.	8cc\
.	.	8dd\J
4C/	2r	8ee\L
.	.	8cc\J
4D\	.	[4ff\
=11	=11	=11
2GG/	2r	4ff\]
.	.	2ee\
2AA/	4A\	.
.	8A\L	4dd\
.	8A\J	.
=12	=12	=12
4A\	4A\	4cc#\
4D\	4D\	8dd\L
.	.	8ccn\J
4G\	4G\	2b-\
8B-\L	8B-\L	.
8A\J	8A\J	.
=13	=13	=13
2G\	8G\L	1r
.	8D\	.
.	8BB-\	.
.	8C\J	.
2D\	8D/L	.
.	8C/	.
.	8BB-/	.
.	8AA/J	.
=14	=14	=14
2G\	8GG/L	1r
.	8AA/	.
.	8BB-/	.
.	8GG/J	.
2A\	2AA/	.
=15	=15	=15
4D\	8r	2dd\
.	8D\L	.
8B-\L	8B-\	.
8A\J	8A\J	.
4G\	4G\	4dd\
8F\L	8F\L	4ee\
8E\J	8E\J	.
=16	=16	=16
2D\	2D\	8ff\L
.	.	8dd\
.	.	8gg\
.	.	8ff\J
4C/	2r	8ee\L
.	.	8ff\
4BB-/	.	8dd\
.	.	8ee\J
=17	=17	=17
2.AA/	2AA/	8cc#\L
.	.	8ee\
.	.	8aa\
.	.	8gg\J
.	4AA/	4ff\
4BB-/	4BB-/	8ee\L
.	.	8dd\J
=18	=18	=18
8C/L	8C/L	4ee\
8AA/J	8AA/	.
4D\	8D/	4.ff\
.	8C/J	.
4BB-/	4BB-/	.
.	.	8dd\L
4GG/	4GG/	8cc\
.	.	8b-\J
=19	=19	=19
2AA/	4AA/	8cc\L
.	.	8dd\
.	8GG/L	8ee\
.	8FF/J	8ff\J
4EE/	4EE/	8gg\L
.	.	8ee\J
4FF/	4FF/	[4aa\
=20	=20	=20
2GG/	2GG/	4aa\]
.	.	8gg\L
.	.	8ff\J
2AA/	2AA/	2ee\
=21	=21	=21
4.D\	4.D\	2ff\
8D\	8D\	.
4D\	4D\	2r
4AA/	4AA/	.
=22	=22	=22
4D\	4D\	1r
8F\L	8F\L	.
8E\J	8E\J	.
2D\	8D\L	.
.	8A\	.
.	8F\	.
.	8G\J	.
=23	=23	=23
4A\	4A\	1r
4B-\	4B-\	.
2A\	2A\	.
=24	=24	=24
2D\	2r	4.dd\
.	.	8dd\
4.D\	8r	4dd\
.	8D\L	.
.	8d\	4a/
8C/	8c\J	.
=25	=25	=25
4BB-/	4B-\	4dd\
4D\	8A\L	8ff\L
.	8G\J	8ee\J
4.D\	8F\L	8dd\L
.	8F\	8aa\
.	8D\	8ff\
8E\	8E\J	8gg\J
=26	=26	=26
4F\	4F\	8aa\L
.	.	8a\
4D\	4D\	8dd\
.	.	8cc\J
4G\	4G\	4b-\
8F\L	8F\L	8a/L
8E\J	8E\J	8g/J
=27	=27	=27
4D\	8D/L	8a\L
.	8D/	8ff\
8C/L	8C/	8ee\
8BB-/J	8BB-/J	8dd\J
2AA/	2AA/	2ee\
=28	=28	=28
1D	1D	1dd
=29	=29	=29
[1B-	2r	1r
.	[2B-\	.
=30	=30	=30
2B-\]	4B-\]	1r
.	8A\L	.
.	8G\J	.
2F#\	2F#\	.
=31	=31	=31
2G\	2G\	2r
2GG/	4r	[2dd\
.	4GG/	.
=32	=32	=32
4BB-/	4BB-/	4dd\]
4C/	4C/	8cc\L
.	.	8b-\J
2D\	2D\	2a/
=33	=33	=33
2.G\	4GG/	4b-\
.	2G\	4b-\
.	.	4dd\
8F\L	8F\L	4ee\
8E\J	8E\J	.
=34	=34	=34
2D\	2D\	4ff\
.	.	4gg\
2C#/	2C#/	[2ee\
=35	=35	=35
2D\	2D\	4ee\]
.	.	4dd\
2FF#/	2FF#/	2dd\
=36	=36	=36
2.GG/	2.GG/	4r
.	.	2gg\
4AA/	4AA/	8ff\L
.	.	8ee\J
=37	=37	=37
4BB-/	4BB-/	4dd\
4C/	4C/	4ee\
4D\	4D\	4ff\
4BB-/	4BB-/	[4dd\
=38	=38	=38
4D\	4D\	4dd\]
4E\	4E\	8cc\L
.	.	8b-\J
2F\	2F\	2a/
=39	=39	=39
*M3/2	*M3/2	*M3/2
1BB-	1BB-	2.b-\
.	.	4f/
2BB-/	2r	4g/
.	.	4a/
=40	=40	=40
1.GG	1.r	2b-\
.	.	2g/
.	.	2gg\
=41	=41	=41
2.D\	2.D\	2.ff\
4AA/	4AA/	4cc\
4BB-/	4BB-/	4dd\
4C/	4C/	4ee\
=42	=42	=42
1D	2.D\	4ff\
.	.	4dd\
.	.	4ff\
.	4D\	4ff\
2E\	4E\	2ee\
.	4F\	.
=43	=43	=43
1G	2.G\	1dd
.	4G\	.
2A\	4A\	2r
.	4B-\	.
=44	=44	=44
2c\	2c\	1.r
2C/	2C/	.
2F\	2F\	.
=45	=45	=45
1BB-	1BB-	2.dd\
.	.	4dd\
2AA/	2r	4ee\
.	.	4ff\
=46	=46	=46
2GG/	2.G\	4gg\
.	.	4dd\
2G\	.	4gg\
.	4G\	4gg\
2A\	4A\	2ff\
.	4B-\	.
=47	=47	=47
2c\	2c\	1ee
2G\	2G\	.
2B-\	2B-\	2dd\
=48	=48	=48
1E-	2.E-\	4r
.	.	4g/
.	.	4b-\
.	4E-\	4cc\
2F\	2F\	2a/
=49	=49	=49
1BB-	2.BB-/	4r
.	.	4dd\
.	.	4ff\
.	4BB-/	4gg\
2C/	2C/	2ee\
=50	=50	=50
1D	2.D\	4ff\
.	.	4ff\
.	.	4aa\
.	4D\	4bb-\
2E\	2E\	2gg\
=51	=51	=51
1F	2.F\	4ff\
.	.	4a/
.	.	4cc\
.	4F\	4dd\
2G\	2G\	2bn\
=52	=52	=52
2.A\	2.A\	4cc\
.	.	4a/
.	.	4ff\
4B-\	4B-\	4dd\
2G\	2G\	2ee\
=53	=53	=53
*met(C)	*met(C)	*met(C)
*M4/4	*M4/4	*M4/4
2F\	2F\	2ff\
2E-\	4r	4r
.	4E-\	4cc\
=54	=54	=54
2BBn/	2BBn/	2dd\
[2C/	[2C/	2ee-\
=55	=55	=55
4C/]	4C/]	2dd\
4BB-/	4BB-/	.
4AA/	4AA/	[2gg\
4GG/	4GG/	.
=56	=56	=56
1AA	1AA	4gg\]
.	.	4ff\
.	.	2ee-\
=57	=57	=57
*	*clefC4	*
2D\	2r	1dd
*clefC4	*	*
4d\	4d\	.
8d\L	8d\L	.
8d\J	8d\J	.
=58	=58	=58
4d\	4d\	1r
8A\L	8A\L	.
8B-\J	8B-\J	.
4c\	8c\L	.
.	8d\	.
4B-\	8B-\	.
.	8c\J	.
=59	=59	=59
*clefF4	*	*
4A\	4A\	2r
8G\L	8G/L	.
8F#\J	8F#/J	.
2G\	2G/	4dd\
.	.	8dd\L
.	.	8dd\J
=60	=60	=60
2D\	8r	4dd\
.	8D/L	.
.	8F/	8a/L
.	8G/J	8b-/J
4A\	4A\	8cc\L
.	.	8dd\
4G\	4G/	8b-\
.	.	8cc\J
=61	=61	=61
2D\	4G/	2a/
.	4F#/	.
4G\	4G/	8r
.	.	8g/L
8F\L	8Fn/L	8b-/
8E\J	8E/J	8cc/J
=62	=62	=62
4D\	4D/	4dd\
4E\	4E/	4cc\
4F\	4F/	4cc\
4G\	4G/	4bn\
=63	=63	=63
4A\	4A\	8cc#\L
.	.	8a\J
4B-\	4B-\	2dd\
2A\	2A\	.
.	.	4cc#\
=64	=64	=64
*	*clefF4	*
2D\	2r	2dd\
4D\	4D\	2r
8D\L	8D\L	.
8D\J	8D\J	.
=65	=65	=65
4D\	4D\	8r
.	.	8a\L
4AA/	8AA/L	8cc\
.	8BB-/J	8dd\J
4C/	8C/L	4ee\
.	8D/	.
4BB-/	8BB-/	4dd\
.	8C/J	.
=66	=66	=66
4AA/	4AA/	4dd\
4A\	4A\	4cc#\
4B-\	4B-\	2dd\
8A\L	8A\L	.
8G\J	8G\J	.
=67	=67	=67
4F#\	4F#\	2r
4G\	4G\	.
2A\	2A\	4aa\
.	.	8aa\L
.	.	8aa\J
=68	=68	=68
4AA/	8r	4aa\
.	8AA/L	.
8BB-/L	8BB-/	8dd\L
8C/J	8C/J	8ee\J
4D\	4D\	8ff\L
.	.	8gg\
4C/	4C/	8ee\
.	.	8ff\J
=69	=69	=69
4C/	4C/	4.dd\
4BBn/	4BBn/	.
.	.	8dd\
2C/	2C/	4.ee\
.	.	16dd\LL
.	.	16ee\JJ
=70	=70	=70
2D\	2r	4.ff\
.	.	16gg\LL
.	.	16ff\JJ
2A\	4A\	2ee\
.	8A\L	.
.	8A\J	.
=71	=71	=71
4A\	4A\	8r
.	.	8ee\L
8D\L	8D\L	8ff\
8E\J	8E\J	8gg\J
4F\	8F\L	4aa\
.	8G\	.
4E\	8E\	4gg\
.	8F\J	.
=72	=72	=72
2D\	2D\	4gg\
.	.	4ff#\
2G\	8r	8gg\L
.	8D\L	8g\
.	8F\	8b-\
.	8G\J	8cc\J
=73	=73	=73
4D\	2A\	4dd\
8F\L	.	8cc\L
8G\J	.	8bn\J
2A\	2r	8cc\L
.	.	8ee\
.	.	8dd\
.	.	8cc\J
=74	=74	=74
4D\	8r	2ff\
.	8D/L	.
8C/L	8C/	.
8BB-/J	8BB-/J	.
2AA/	2AA/	8r
.	.	8a/L
.	.	8cc/
.	.	8a/J
=75	=75	=75
4BB-/	8r	2dd\
.	8BB-/L	.
8AA/L	8AA/	.
8GG/J	8GG/J	.
2D\	2D\	8r
.	.	8dd\L
.	.	8ff\
.	.	8dd\J
=76	=76	=76
4F\	8r	2aa\
.	8F\L	.
8E\L	8E\	.
8D\J	8D\J	.
2A\	2A\	8r
.	.	8a/L
.	.	8cc/
.	.	8a/J
=77	=77	=77
4B-\	8r	2dd\
.	8B-\L	.
8A\L	8A\	.
8G\J	8G\J	.
4.F\	8F\L	8r
.	8G\	8b-/L
.	8F\	8a/
8E\	8E\J	8g/J
=78	=78	=78
2D\	8D\L	8f/L
.	8E\	8g/
.	8F\	8a/
.	8D\J	8bn/J
8Cn/L	8Cn/L	8cc#\L
8BB-/	8BB-/	8dd\
8AA/	8AA/	8ee\
8GG/J	8GG/J	8b\J
=79	=79	=79
8AA/L	8AA/L	8cc#\L
8F/	8F/	8a\J
8E/	8E/	2dd\
8D/J	8D/J	.
2AA/	2AA/	.
.	.	4cc#\
=80	=80	=80
0D	0D	0dd
==	==	==
*-	*-	*-
!!!ENC: Craig Stuart Sapp
!!!END: 2004/12/14/
